X:285
T: Ganz heimelich (43), S. 142
N: T0174
O: Luxemburg
S: Singendes Volk, Esch-Alzette 1937 posth.]
N: Holler, 1890, mitgeteilt hhh H. Godefroid,
N: Godbringen, 1902
R: Liebeslieder]
M: 2/4
L: 1/16
K: C
G2 | c2c2ccd2 | cBA2G2
d2 | d2e2d2c2 | B2A2G2
G2 | c2G2c2G2 | c2G2c2
G2 | d2G2d2G2 | e2e2e2
d2 | e6f2e4
d4 | c8B8 | c4z2

